X:1
T:I Am Saved by His Blood
T:I Am Saved by His Blood
T:William Warren Bentley
T:Mary Elizabeth Bliss Willson, 1883
T:Public Domain Courtesy of the Cyber Hymnal™
T:Public Domain Courtesy of the Cyber Hymnal™
C:William Warren Bentley
Z:Public Domain
Z:Courtesy of the Cyber Hymnal™
%%score ( 1 2 ) ( 3 4 )
L:1/8
Q:1/4=107
M:4/4
K:G
V:1 treble 
V:2 treble 
V:3 bass 
V:4 bass 
V:1
 D2 | [DG]2 [DG]2 (GA) ([GB][Ac]) | [Bd]2 [Bd]2 [GB]2 [DG]>[DA] | [GB]4 [GB]2 [FA]2 | [DG]6 D2 | %5
w: 1.~The|Sav- ior called * so *|lov- ing- ly, I am|saved by His|blood; I|
w: 2.~His|lov- ing words * came *|to my ear, I am|saved by His|blood; “Come|
w: 3.~“He|that be- liev- * eth,” *|hear the word, I am|saved by His|blood; “Hath|
 [DG]2 [DG]2 (GA) ([GB][Ac]) | [Bd]2 [Bd]2 [GB]2 [GB]>[GB] | [FA]4 [EB]2 [G^c]2 | [Fd]6 [Gd]2 | %9
w: heard His voice * from *|Cal- va- ry, I am|saved by His|blood. I|
w: un- to Me, * and *|do not fear,” I am|saved by His|blood. And|
w: life” in Je- * sus *|Christ our Lord, I am|saved by His|blood. The|
 [Ge]2 [Ge]2 [Ec]2 [Ge]2 | [Gd]2 [Gd]2 [GB]2 [GB]2 | [FA]2 [GB]2 [Ac]2 [GB]2 | %12
w: won- dered if it|was for me, A|wretch so full of|
w: I had naught to|bring to Him, On-|ly my vile- ness,|
w: sto- ry nev- er|can be told; Oh,|cast on Him thy|
 [FA]2 [EG]2 [FA]2 D2 | [DG]2 [DG]2 (GA) ([GB][Ac]) | [Bd]2 [Bd]2 [GB]2 [DG]>[DA] | %15
w: mis- er- y, To|be from sin * and *|sor- row free, I am|
w: guilt, and sin, But|as I came * He *|let me in, I am|
w: sin sick soul, And|He will quick- * ly *|make thee whole, A- nd|
 [GB]4 [GB]2 [FA]2 | [DG]6 ||"^Refrain" [Bd]>[Bd] | [Bd]4 [Bd]2 [GB]>[GB] | [GB]4 [GB]2 [GB]>[GB] | %20
w: saved by His|blood.||||
w: saved by His|blood.|Hal- le-|lu- jah! hal- le-|lu- jah! I am|
w: saved by His|blood.||||
 [FA]4 [GB]2 [Ac]2 | [GB]6 [Bd]>[Bd] | [Bd]4 [Bd]2 [GB]>[GB] | [GB]4 [GB]2 [DG]>[DG] | %24
w: ||||
w: saved by His|blood; Hal- le-|lu- jah! hal- le-|lu- jah! I am|
w: ||||
 [EA]4 [DG]2 [DF]2 | [DG]6 |] %26
w: ||
w: saved by His|blood.|
w: ||
V:2
 D2 | x4 D2 x2 | x8 | x8 | x6 D2 | x4 D2 x2 | x8 | x8 | x8 | x8 | x8 | x8 | x6 D2 | x4 D2 x2 | x8 | %15
 x8 | x6 || x2 | x8 | x8 | x8 | x8 | x8 | x8 | x8 | x6 |] %26
V:3
 [G,B,]2 | [G,B,]2 [G,B,]2 (B,C) [G,D]2 | [G,G]2 [G,G]2 [G,D]2 [G,B,]>[G,C] | %3
w: |||
 [D,D]4 [D,D]2 [D,C]2 | [G,B,]6 [G,B,]2 | [G,B,]2 [G,B,]2 (B,C) [G,D]2 | %6
w: |||
 [G,G]2 [G,G]2 [G,D]2 [G,D]>[G,D] | [A,D]4 [A,,^C]2 [A,,A,]2 | [D,A,]6 [G,B,]2 | %9
w: |||
 [C,C]2 [C,C]2 [C,C]2 [C,C]2 | [G,B,]2 [G,B,]2 [G,D]2 [G,D]2 | [D,D]2 [D,D]2 [D,D]2 [D,D]2 | %12
w: |||
 [D,D]2 [D,D]2 [D,D]2 [G,B,]2 | [G,B,]2 [G,B,]2 (B,C) [G,D]2 | [G,G]2 [G,G]2 [G,D]2 [G,B,]>[G,C] | %15
w: |||
 [D,D]4 [D,D]2 [D,C]2 | [G,,G,B,]6 || z2 | z2 G,>G, G,G, z2 | %19
w: |||Hal- le- lu- jah!|
 z2 [G,D]>[G,D] [G,D][G,D] [G,D]>[G,D] | [D,D]4 [D,D]2 [D,D]2 | [G,D]6 z2 | z2 G,>G, G,G, z2 | %23
w: hal- le- lu- jah! * *|||Hal- le- lu- jah!|
 z2 [G,D]>[G,D] [G,D][G,D] [G,B,]>[G,B,] | [C,C]4 [D,B,]2 [D,A,]2 | [G,,G,B,]6 |] %26
w: hal- le- lu- jah! * *|||
V:4
 x2 | x4 G,2 x2 | x8 | x8 | x8 | x4 G,2 x2 | x8 | x8 | x8 | x8 | x8 | x8 | x8 | x4 G,2 x2 | x8 | %15
 x8 | x6 || x2 | x2 G,>G, G,G, x2 | x8 | x8 | x8 | x2 G,>G, G,G, x2 | x8 | x8 | x6 |] %26

